images/icons/download-icon.svg

<svg width="38" height="48" viewBox="0 0 38 48" fill="none" xmlns="http://www.w3.org/2000/svg">
<path fill-rule="evenodd" clip-rule="evenodd" d="M2.81481 9.45218C2.81481 6.11113 5.54532 3.40267 8.91358 3.40267H21.5802V14.1056V15.5017H22.9877H34.716V30.8581H37.5309V14.0204V13.415L37.0852 13.0012L24.1456 0.987416L23.7397 0.610596H23.1838H8.91358C3.99075 0.610596 0 4.56911 0 9.45218V38.3037C0 43.1867 3.99075 47.1453 8.91358 47.1453H25.3333V44.3532H8.91358C5.54532 44.3532 2.81481 41.6447 2.81481 38.3037V9.45218ZM24.3951 12.7096V5.04337L32.6521 12.7096H24.3951ZM17.4841 11.7928L17.5008 11.7909C17.5123 11.8176 17.5253 11.8512 17.539 11.893C17.696 12.3718 17.7452 13.2847 17.5732 14.6543C17.5346 14.9611 17.4863 15.2814 17.4287 15.6137C16.9468 14.4907 16.6948 13.5425 16.678 12.8433C16.6661 12.3504 16.7746 12.1312 16.8415 12.0454C16.8874 11.9865 17.0219 11.8455 17.4841 11.7928ZM20.3664 14.9997C20.2041 16.2908 19.8949 17.758 19.4765 19.3094C20.9589 21.5457 22.8411 23.7709 24.7023 25.4584C25.5367 25.304 26.2997 25.1951 26.9627 25.1395C28.7986 24.9855 30.2936 25.3244 31.3429 26.0328C32.3638 26.722 33.0852 27.8993 32.7656 29.1716C32.4268 30.5208 31.1425 31.1598 29.8324 31.166C28.5337 31.172 26.9778 30.6161 25.2377 29.4484C24.8007 29.1551 24.3583 28.8272 23.9143 28.47C21.1793 29.0804 17.791 30.1204 14.7457 31.3532C13.9091 32.942 13.0359 34.38 12.1688 35.5429C11.2727 36.7447 10.2725 37.8059 9.20765 38.3563C8.65443 38.6422 7.99588 38.8356 7.28584 38.7478C6.55028 38.6569 5.93557 38.286 5.46077 37.7591C4.7162 36.9327 4.51336 35.9159 4.84658 34.9188C5.13729 34.0489 5.79554 33.3077 6.5015 32.6989C7.93746 31.4605 10.1673 30.2702 12.5748 29.2309L12.7049 29.1749C13.4122 27.7596 14.0969 26.2201 14.7229 24.6427C15.379 22.9893 15.9592 21.3232 16.4282 19.747C16.2032 19.3767 15.9901 19.0085 15.7903 18.6444C14.7067 16.6697 13.9052 14.621 13.864 12.91C13.8429 12.0331 14.0187 11.1016 14.6153 10.3368C15.227 9.5525 16.1239 9.14333 17.1334 9.02236C17.8111 8.92172 18.5145 9.02767 19.1198 9.45581C19.7041 9.86908 20.031 10.4661 20.2157 11.0291C20.5724 12.1167 20.5497 13.5404 20.3664 14.9997ZM17.3421 25.6654C17.7324 24.6819 18.1005 23.6849 18.4381 22.6952C19.3671 23.9245 20.3854 25.1175 21.4378 26.1986C19.8463 26.6158 18.1538 27.1322 16.4887 27.7135C16.7842 27.0375 17.0695 26.3524 17.3421 25.6654ZM29.8062 28.3739C29.4626 28.3728 28.9095 28.265 28.145 27.9033C28.9696 27.9475 29.484 28.1552 29.7592 28.341L29.7789 28.3545C29.7883 28.3611 29.7974 28.3675 29.8062 28.3739ZM30.0273 28.6157C30.0273 28.6157 30.0241 28.6102 30.0228 28.5982C30.0275 28.6095 30.0273 28.6157 30.0273 28.6157ZM8.34838 34.8059C8.81211 34.406 9.41826 33.9878 10.1391 33.5623C10.0611 33.6718 9.98327 33.7786 9.90577 33.8825C9.07454 34.9973 8.38632 35.6324 7.90702 35.8801C7.7572 35.9575 7.67364 35.9731 7.64329 35.9761C7.6276 35.9656 7.59979 35.9431 7.55946 35.8984C7.49869 35.831 7.49926 35.8301 7.50868 35.8163C7.5116 35.812 7.51538 35.8064 7.51844 35.7973C7.57388 35.6314 7.78512 35.2917 8.34838 34.8059ZM30.2593 41.9378V32.7195H34.4815V41.9378H38L32.3704 47.6106L26.7407 41.9378H30.2593Z" fill="url(#paint0_linear)"/>
<defs>
<linearGradient id="paint0_linear" x1="18.7654" y1="0.610596" x2="18.7654" y2="47.1452" gradientUnits="userSpaceOnUse">
<stop stop-color="#AD844C"/>
<stop offset="0.21875" stop-color="#BDA180"/>
<stop offset="0.4375" stop-color="#AD844C"/>
</linearGradient>
</defs>
</svg>

<svg width="38" height="48" fill="none" xmlns="http://www.w3.org/2000/svg"><path fill-rule="evenodd" clip-rule="evenodd" d="M2.815 9.452c0-3.34 2.73-6.05 6.099-6.05H21.58v12.101h13.136v15.356h2.815V13.415l-.446-.414L24.145.987 23.74.611H8.914C3.99.61 0 4.569 0 9.452v28.852c0 4.883 3.99 8.841 8.914 8.841h16.42v-2.792H8.913c-3.369 0-6.1-2.708-6.1-6.05V9.454zm21.58 3.258V5.043l8.257 7.667h-8.257zm-6.91-.917l.016-.002c.011.027.024.06.038.102.157.479.206 1.392.034 2.761-.038.307-.087.627-.144.96-.482-1.123-.734-2.072-.751-2.77-.012-.494.097-.713.163-.799.046-.059.18-.2.643-.252zM20.365 15c-.162 1.29-.471 2.758-.89 4.31 1.483 2.236 3.365 4.46 5.226 6.148a23.438 23.438 0 012.26-.318c1.837-.155 3.332.184 4.38.893 1.022.689 1.743 1.866 1.424 3.139-.34 1.349-1.623 1.988-2.934 1.994-1.298.006-2.854-.55-4.594-1.718-.437-.293-.88-.62-1.324-.978-2.735.61-6.123 1.65-9.168 2.883-.837 1.589-1.71 3.027-2.577 4.19-.896 1.202-1.896 2.263-2.961 2.813-.554.286-1.212.48-1.922.392-.736-.091-1.35-.462-1.825-.989-.745-.826-.948-1.843-.614-2.84.29-.87.949-1.611 1.654-2.22 1.436-1.238 3.666-2.429 6.074-3.468l.13-.056a58.525 58.525 0 002.018-4.532 59.22 59.22 0 001.705-4.896c-.225-.37-.438-.738-.638-1.103-1.083-1.974-1.885-4.023-1.926-5.734-.021-.877.155-1.808.751-2.573.612-.784 1.509-1.194 2.518-1.315.678-.1 1.382.006 1.987.434.584.413.911 1.01 1.096 1.573.356 1.088.334 2.511.15 3.97zm-3.024 10.665c.39-.983.759-1.98 1.096-2.97a37.33 37.33 0 003 3.504 65.969 65.969 0 00-4.95 1.514c.296-.675.582-1.36.854-2.048zm12.464 2.709c-.343-.001-.896-.109-1.661-.47.825.044 1.339.251 1.614.437l.02.014.027.019zm.221.242s-.003-.006-.004-.018c.005.012.004.018.004.018zm-21.679 6.19c.464-.4 1.07-.818 1.791-1.244-.078.11-.156.217-.233.32-.831 1.115-1.52 1.75-1.999 1.998a.789.789 0 01-.264.096.486.486 0 01-.084-.078c-.06-.067-.06-.068-.05-.082a.072.072 0 00.01-.019c.055-.166.266-.505.83-.991zm21.911 7.132v-9.219h4.222v9.219H38l-5.63 5.673-5.63-5.673h3.52z" fill="url(#paint0_linear)"/><defs><linearGradient id="paint0_linear" x1="18.765" y1=".611" x2="18.765" y2="47.145" gradientUnits="userSpaceOnUse"><stop stop-color="#AD844C"/><stop offset=".219" stop-color="#BDA180"/><stop offset=".438" stop-color="#AD844C"/></linearGradient></defs></svg>
